X: 1
T: Mouse In The Mug, The
M: 6/8
L: 1/8
R: jig
K: Gmaj
~G3  EGD | ~G3 Bdg | fge dBG | ~A3 BAB |
~G3  EGD | ~G3 Bdg | ~e3 dBG | AGF GBA |
~G3  EGD | ~G3 Bdg | fge dBG | ~A3 BAB |
~G3  EGD | ~G3 Bdg | ~e3 dBG | AGF GBd |
gab agf | fgd edB | deg edB | AGA BG/2B/2d |
gab agf | fgd edB | deg edB | AGF GG/2B/2d |
gab agf | fgd edB | deg edB | AGA BAB |
~G3  EGD | ~G3 Bdg | ~e3 dBG | AGF G3 ||
